X:1
T:Hare in the Corn (slide)
M:12/8
L:1/8
R:slide
O:Trad. (6.11.2014/NS)
K:Dmaj
AG|"D"F2A AFA "G"BdB "D"AFD|F2E "A"EDE "D"F2D D2 E|
"D"F2A AFA "G"BdB "D"AFA|"G"Bcd "A"edB "D"d3 d:|
|:ze|"D"f2f fef "G"g2e ede|"D"f2f fed "A"a2a bag|
"D"f2f fef "G"g2e edB|"D"ABd "A"edB "D"d3 d:|
